X:547
T: Shierge yue caicha
N: C1965
O: China, Hunan Lianyuan
S: I, 510]
R: Xiaodiao]
M: 2/4
L: 1/16
K: Bb
d2ddb2c2 | g2b2g4 | f4d4 | g2d2c4 | b2c2d4
b2bcd2c2 | b2c2d4 | ggbgf4 | b2gff2dc | b2bdc4
ggbdc4 | b2gdd2dc | b2c2d4 | ggbgf4 | b2f2c2bg | f3gf4

